material/.icons/material/cursor-default-click-outline.svg

<svg xmlns="http://www.w3.org/2000/svg" viewBox="0 0 24 24"><path d="M11.5 11l6.38 5.37-.88.18-.64.12c-.63.13-.99.83-.71 1.4l.27.58 1.36 2.94-1.42.66-1.36-2.93-.26-.58a.985.985 0 00-1.52-.36l-.51.4-.71.57V11m-.74-2.31a.76.76 0 00-.76.76V20.9c0 .42.34.76.76.76.19 0 .35-.06.48-.16l1.91-1.55 1.66 3.62c.13.27.4.43.69.43.11 0 .22 0 .33-.08l2.76-1.28c.38-.18.56-.64.36-1.01L17.28 18l2.41-.45a.88.88 0 00.43-.26c.27-.32.23-.79-.12-1.08l-8.74-7.35-.01.01a.756.756 0 00-.49-.18M15 10V8h5v2h-5m-1.17-5.24l2.83-2.83 1.41 1.41-2.83 2.83-1.41-1.41M10 0h2v5h-2V0M3.93 14.66l2.83-2.83 1.41 1.41-2.83 2.83-1.41-1.41m0-11.32l1.41-1.41 2.83 2.83-1.41 1.41-2.83-2.83M7 10H2V8h5v2"/></svg>

<?xml version="1.0" encoding="UTF-8"?><!DOCTYPE svg PUBLIC "-//W3C//DTD SVG 1.1//EN" "http://www.w3.org/Graphics/SVG/1.1/DTD/svg11.dtd"><svg xmlns="http://www.w3.org/2000/svg" xmlns:xlink="http://www.w3.org/1999/xlink" version="1.1" id="mdi-cursor-default-click-outline" width="24" height="24" viewBox="0 0 24 24"><path d="M11.5,11L17.88,16.37L17,16.55L16.36,16.67C15.73,16.8 15.37,17.5 15.65,18.07L15.92,18.65L17.28,21.59L15.86,22.25L14.5,19.32L14.24,18.74C13.97,18.15 13.22,17.97 12.72,18.38L12.21,18.78L11.5,19.35V11M10.76,8.69A0.76,0.76 0 0,0 10,9.45V20.9C10,21.32 10.34,21.66 10.76,21.66C10.95,21.66 11.11,21.6 11.24,21.5L13.15,19.95L14.81,23.57C14.94,23.84 15.21,24 15.5,24C15.61,24 15.72,24 15.83,23.92L18.59,22.64C18.97,22.46 19.15,22 18.95,21.63L17.28,18L19.69,17.55C19.85,17.5 20,17.43 20.12,17.29C20.39,16.97 20.35,16.5 20,16.21L11.26,8.86L11.25,8.87C11.12,8.76 10.95,8.69 10.76,8.69M15,10V8H20V10H15M13.83,4.76L16.66,1.93L18.07,3.34L15.24,6.17L13.83,4.76M10,0H12V5H10V0M3.93,14.66L6.76,11.83L8.17,13.24L5.34,16.07L3.93,14.66M3.93,3.34L5.34,1.93L8.17,4.76L6.76,6.17L3.93,3.34M7,10H2V8H7V10" /></svg>
